X: 1
T: Tipsy Sailor, The
I: Tipsy Sailor, The	J-51	Em	jig
H: Scottish jig
M: 6/8
R: jig
K: Em
D| "Em"E2B- BAB| E2B- BAB| "D"ded d^cB| AFD DEF|    "Em"E2B- BAB| E2B- BAB| "D"AdB AFA| "Em"BGE E2:|
f| "Em"eBe gfe| Bef gfe| "D"fdA FAd| fdf "B7"agf|    "Em"eBe gfe| Bef gfe| "D"fdf gfg| "Em"bge e2f|
   "Em"eBe gfe| Bef gfe| "D"fdA FAd| fdf "B7"agf|    "Em"gba gfe| "D"fag fed| B/c/dB AFA| "Em"BGE E2|]
%%text 05/27/09 

